X:246
T:The Tracey's of Roslin
R:jig
C:Bruce Osborne - Oct. 2002
Z:abc by bosborne@kos.net
M:6/8
L:1/8
K:Gmaj
D|G2 G GFG|GBd dBG|FGA AFD|GFG GB,D|\
G2 G GFG|GBd dBG|FGA AFD|GBA G2:|
|:B/c/|dBB eBB|AGA BGE|DB,C DGA|BAB A2 B/c/|\
dBB eBB|AGA BGE|DB,C DGA|BcA G2:|
